X:20
T:Mountain Road
M:4/4
L:1/8
K:D
|:"D"F2 AF BFAF|F2 AF "A"EFDE|"D"F2 AF BFAF|"Em"GEFD "A7"EDBA|!
"D"F2 AF BFAF|F2 AF "A"EFDE|"D"FA A2 "Bm"BAAF|"A"ABde "D"fd d2:|!
"D"dcdB ADFA|dcde "Bm"fgfe|"D"dcdB ADFA|"A"GEFD "D"EDBc|!
"D"dcdB ADFA|"Bm"dcde "D"fgfe|"G"dcdB "D"ADFA|"A"GEFD "D"EDBA:|

